icons/alien.svg

<svg width="24" height="24" viewBox="0 0 24 24" fill="none" xmlns="http://www.w3.org/2000/svg">
<path d="M12 3C10.0109 3 8.10322 3.79018 6.6967 5.1967C5.29018 6.60322 4.5 8.51088 4.5 10.5C5.167 14 7.6 21.2 12 22C16.4 21.2 18.833 14 19.5 10.5C19.5 8.51088 18.7098 6.60322 17.3033 5.1967C15.8968 3.79018 13.9891 3 12 3V3Z" stroke="white" stroke-width="2" stroke-linecap="round" stroke-linejoin="round"/>
<path d="M9.50099 13.06C10.087 13.646 10.404 14.28 10.209 14.475C10.013 14.67 9.37999 14.354 8.79399 13.768C8.20899 13.182 7.89199 12.548 8.08699 12.354C8.28299 12.158 8.91599 12.474 9.50099 13.061V13.06Z" stroke="white" stroke-width="2" stroke-linecap="round" stroke-linejoin="round"/>
<path d="M14.498 13.06C13.913 13.646 13.596 14.28 13.791 14.475C13.987 14.67 14.62 14.354 15.206 13.768C15.791 13.182 16.108 12.548 15.913 12.354C15.717 12.158 15.084 12.474 14.498 13.061V13.06Z" stroke="white" stroke-width="2" stroke-linecap="round" stroke-linejoin="round"/>
</svg>

<svg
  width="24"
  height="24"
  viewBox="0 0 24 24"
  xmlns="http://www.w3.org/2000/svg"
  fill="none"
  stroke="currentColor"
  stroke-width="2"
  stroke-linecap="round"
  stroke-linejoin="round"
>
  <path d="M12 3a7.5 7.5 0 0 0-7.5 7.5C5.167 14 7.6 21.2 12 22c4.4-.8 6.833-8 7.5-11.5A7.5 7.5 0 0 0 12 3z" />
  <path d="M9.501 13.06c.586.586.903 1.22.708 1.415-.196.195-.829-.121-1.415-.707-.585-.586-.902-1.22-.707-1.414.196-.196.829.12 1.414.707z" />
  <path d="M14.498 13.06c-.585.586-.902 1.22-.707 1.415.196.195.829-.121 1.415-.707.585-.586.902-1.22.707-1.414-.196-.196-.829.12-1.415.707z" />
</svg>
